packages/fxa-settings/src/components/ConnectedServices/relay.svg

<svg width="22" height="24" viewBox="0 0 22 24" fill="none" xmlns="http://www.w3.org/2000/svg">
<g clip-path="url(#clip0_434_5350)">
<path fill-rule="evenodd" clip-rule="evenodd" d="M11.602 0.252475L20.1825 5.14568C20.4999 5.31524 20.7642 5.57112 20.9457 5.8845C21.1272 6.19788 21.2187 6.55632 21.2098 6.91947V16.6753C21.2088 17.0365 21.1131 17.3909 20.9327 17.7025C20.7522 18.0141 20.4934 18.2717 20.1825 18.4491L11.602 23.3117C11.2995 23.4911 10.9555 23.5861 10.6049 23.587C10.2538 23.5902 9.90873 23.4949 9.60789 23.3117L1.02731 18.4491C0.713925 18.2747 0.452979 18.0178 0.272132 17.7055C0.0912837 17.3932 -0.00272814 17.0373 6.02718e-05 16.6753V6.91947C0.00109091 6.55828 0.0967061 6.20383 0.277161 5.89223C0.457617 5.58063 0.71646 5.32303 1.02731 5.14568L9.6381 0.252475C9.9395 0.0867893 10.277 0 10.62 0C10.963 0 11.3006 0.0867893 11.602 0.252475ZM3.8374 14.3771L4.35103 14.0713C4.44337 14.0171 4.54575 13.9828 4.65177 13.9705C4.7578 13.9582 4.8652 13.9681 4.96727 13.9997C5.06933 14.0312 5.16387 14.0838 5.24499 14.154C5.3261 14.2242 5.39205 14.3106 5.43871 14.4077C5.49118 14.4999 5.525 14.6017 5.5382 14.7072C5.5514 14.8127 5.54372 14.9198 5.51559 15.0223C5.48747 15.1248 5.43947 15.2206 5.3744 15.3041C5.30933 15.3876 5.22848 15.4571 5.13657 15.5087L4.62295 15.8145C4.50022 15.8738 4.36615 15.9051 4.23017 15.9063C4.08712 15.9042 3.94721 15.8635 3.825 15.7882C3.70279 15.7129 3.60274 15.6058 3.53527 15.4781C3.4828 15.386 3.44898 15.2842 3.43578 15.1786C3.42257 15.0731 3.43026 14.966 3.45838 14.8635C3.48651 14.761 3.5345 14.6653 3.59958 14.5817C3.66465 14.4982 3.7455 14.4287 3.8374 14.3771ZM6.43574 12.8786L7.49321 12.2669C7.58555 12.2128 7.68793 12.1784 7.79396 12.1661C7.89998 12.1538 8.00738 12.1637 8.10945 12.1953C8.21151 12.2269 8.30606 12.2794 8.38717 12.3496C8.46828 12.4198 8.53423 12.5062 8.58089 12.6033C8.63336 12.6955 8.66718 12.7973 8.68038 12.9028C8.69358 13.0083 8.6859 13.1154 8.65777 13.2179C8.62965 13.3204 8.58166 13.4162 8.51658 13.4997C8.45151 13.5832 8.37066 13.6528 8.27876 13.7043L7.22129 14.316C7.09856 14.3752 6.96449 14.4065 6.82852 14.4077C6.68546 14.4057 6.54555 14.3649 6.42334 14.2896C6.30113 14.2143 6.20108 14.1073 6.13361 13.9796C6.08114 13.8874 6.04732 13.7856 6.03412 13.6801C6.02092 13.5746 6.0286 13.4675 6.05673 13.365C6.08485 13.2625 6.13284 13.1667 6.19792 13.0832C6.26299 12.9997 6.34384 12.9301 6.43574 12.8786ZM11.5787 10.5444C11.6513 10.6075 11.7107 10.6847 11.7533 10.7714C11.862 10.9883 11.8836 11.2392 11.8137 11.4718C11.861 11.5838 11.8829 11.7052 11.8777 11.827C11.8724 11.9487 11.8403 12.0677 11.7835 12.1752C11.7409 12.262 11.6815 12.3392 11.6089 12.4022C11.5362 12.4653 11.4517 12.5129 11.3605 12.5422V18.7504C11.3605 18.9694 11.2746 19.1795 11.1216 19.3343C10.9686 19.4892 10.7611 19.5762 10.5448 19.5762C10.3284 19.5762 10.1209 19.4892 9.96792 19.3343C9.81494 19.1795 9.72899 18.9694 9.72899 18.7504V12.5728C9.63776 12.5435 9.5533 12.4959 9.48063 12.4328C9.40796 12.3698 9.34857 12.2925 9.30601 12.2058C9.24924 12.0983 9.21706 11.9793 9.21183 11.8575C9.2066 11.7358 9.22846 11.6144 9.27579 11.5024C9.22846 11.3903 9.2066 11.2689 9.21183 11.1472C9.21706 11.0254 9.24924 10.9064 9.30601 10.799C9.34857 10.7122 9.40796 10.635 9.48063 10.5719C9.5533 10.5089 9.63776 10.4613 9.72899 10.432V4.25431C9.72535 4.14745 9.74295 4.04094 9.78076 3.9411C9.81856 3.84126 9.8758 3.75013 9.94907 3.67311C10.0223 3.59609 10.1101 3.53476 10.2073 3.49275C10.3044 3.45075 10.4089 3.42892 10.5145 3.42858C10.6218 3.42817 10.728 3.44926 10.8272 3.49061C10.9263 3.53196 11.0164 3.59277 11.0923 3.66953C11.1681 3.74628 11.2282 3.83747 11.269 3.93784C11.3099 4.0382 11.3307 4.14576 11.3303 4.25431V10.4045C11.4215 10.4338 11.506 10.4814 11.5787 10.5444ZM12.7533 9.26984L13.8108 8.65819C13.9031 8.60402 14.0055 8.56971 14.1116 8.55738C14.2176 8.54506 14.325 8.55499 14.427 8.58656C14.5291 8.61812 14.6237 8.67065 14.7048 8.74086C14.7859 8.81106 14.8518 8.89744 14.8985 8.9946C14.951 9.08675 14.9848 9.18855 14.998 9.29406C15.0112 9.39958 15.0035 9.5067 14.9754 9.60918C14.9472 9.71166 14.8993 9.80744 14.8342 9.89095C14.7691 9.97446 14.6883 10.044 14.5964 10.0956L13.5389 10.7072C13.4162 10.7665 13.2821 10.7978 13.1461 10.799C13.0031 10.797 12.8631 10.7562 12.7409 10.6809C12.6187 10.6056 12.5187 10.4985 12.4512 10.3708C12.3987 10.2787 12.3649 10.1769 12.3517 10.0714C12.3385 9.96583 12.3462 9.85871 12.3743 9.75623C12.4024 9.65376 12.4504 9.55797 12.5155 9.47446C12.5806 9.39095 12.6614 9.3214 12.7533 9.26984ZM16.7083 8.87227C16.5855 8.93153 16.4515 8.96285 16.3155 8.96402C16.1749 8.96797 16.0359 8.93303 15.9135 8.86298C15.791 8.79293 15.6898 8.6904 15.6206 8.56644C15.5681 8.4743 15.5343 8.3725 15.5211 8.26698C15.5079 8.16146 15.5156 8.05434 15.5437 7.95186C15.5718 7.84939 15.6198 7.7536 15.6849 7.67009C15.75 7.58658 15.8308 7.51703 15.9227 7.46547L16.4363 7.15965C16.5276 7.10683 16.6283 7.07278 16.7327 7.05947C16.837 7.04616 16.9429 7.05384 17.0443 7.08208C17.1456 7.11032 17.2405 7.15856 17.3234 7.22402C17.4063 7.28948 17.4757 7.37088 17.5274 7.46354C17.5791 7.5562 17.6123 7.6583 17.6249 7.76396C17.6376 7.86962 17.6295 7.97677 17.6011 8.07926C17.5727 8.18174 17.5246 8.27754 17.4595 8.36115C17.3944 8.44475 17.3137 8.51452 17.2219 8.56644L16.7083 8.87227ZM16.7083 14.0713L17.2219 14.3771C17.3144 14.424 17.3962 14.4898 17.4622 14.5703C17.5282 14.6509 17.577 14.7445 17.6054 14.8451C17.6338 14.9457 17.6412 15.0513 17.6272 15.155C17.6132 15.2587 17.5781 15.3583 17.524 15.4475C17.4565 15.5752 17.3565 15.6823 17.2343 15.7576C17.1121 15.8329 16.9722 15.8737 16.8291 15.8757C16.6931 15.8745 16.5591 15.8432 16.4363 15.7839L15.9227 15.4781C15.7395 15.3721 15.6052 15.197 15.5492 14.991C15.4932 14.785 15.5201 14.565 15.6239 14.379C15.7278 14.1931 15.9002 14.0563 16.1034 13.9986C16.3065 13.941 16.524 13.9671 16.7083 14.0713ZM13.5359 12.2669L14.5933 12.8786C14.6865 12.9247 14.769 12.9901 14.8355 13.0706C14.9021 13.1511 14.9512 13.2448 14.9797 13.3457C15.0082 13.4466 15.0154 13.5525 15.0009 13.6564C14.9864 13.7603 14.9505 13.86 14.8955 13.949C14.828 14.0767 14.7279 14.1837 14.6057 14.259C14.4835 14.3343 14.3436 14.3751 14.2006 14.3771C14.0646 14.376 13.9305 14.3446 13.8078 14.2854L12.7503 13.6737C12.6585 13.6218 12.5778 13.552 12.5127 13.4684C12.4476 13.3848 12.3995 13.289 12.3711 13.1865C12.3427 13.0841 12.3346 12.9769 12.3473 12.8712C12.3599 12.7656 12.3931 12.6635 12.4448 12.5708C12.4966 12.4782 12.5659 12.3968 12.6488 12.3313C12.7317 12.2658 12.8266 12.2176 12.9279 12.1894C13.0293 12.1611 13.1352 12.1534 13.2396 12.1668C13.3439 12.1801 13.4446 12.2141 13.5359 12.2669ZM7.49321 10.6766L6.43574 10.065C6.25269 9.95061 6.11956 9.76995 6.06343 9.55974C6.00731 9.34953 6.0324 9.12558 6.13361 8.93343C6.18454 8.84041 6.25326 8.75857 6.33576 8.6927C6.41826 8.62683 6.51289 8.57825 6.61413 8.54978C6.71537 8.52132 6.8212 8.51354 6.92544 8.5269C7.02968 8.54026 7.13025 8.5745 7.22129 8.62761L8.27876 9.23926C8.37066 9.29081 8.45151 9.36037 8.51658 9.44388C8.58166 9.52739 8.62965 9.62317 8.65777 9.72565C8.6859 9.82813 8.69358 9.93525 8.68038 10.0408C8.66718 10.1463 8.63336 10.2481 8.58089 10.3402C8.51342 10.4679 8.41337 10.575 8.29116 10.6503C8.16895 10.7256 8.02904 10.7664 7.88598 10.7684C7.75001 10.7672 7.61594 10.7359 7.49321 10.6766ZM4.62295 7.15965L5.13657 7.46547C5.22715 7.51433 5.30708 7.58115 5.3716 7.66194C5.43611 7.74274 5.4839 7.83586 5.51209 7.93575C5.54029 8.03565 5.54832 8.14026 5.53571 8.24337C5.5231 8.34647 5.49011 8.44594 5.43871 8.53586C5.37123 8.66356 5.27119 8.77063 5.14898 8.84593C5.02677 8.92123 4.88686 8.96201 4.7438 8.96402C4.60783 8.96285 4.47376 8.93153 4.35103 8.87227L3.8374 8.56644C3.74561 8.51452 3.66486 8.44475 3.59979 8.36115C3.53471 8.27754 3.4866 8.18174 3.45821 8.07926C3.42982 7.97677 3.42172 7.86962 3.43436 7.76396C3.44701 7.6583 3.48015 7.5562 3.53189 7.46354C3.58363 7.37088 3.65295 7.28948 3.73586 7.22402C3.81877 7.15856 3.91365 7.11032 4.01503 7.08208C4.11641 7.05384 4.22231 7.04616 4.32663 7.05947C4.43096 7.07278 4.53166 7.10683 4.62295 7.15965Z" fill="black"/>
</g>
<defs>
<clipPath id="clip0_434_5350">
<rect width="21.2571" height="24" fill="white"/>
</clipPath>
</defs>
</svg>

<svg width="22" height="24" fill="none" xmlns="http://www.w3.org/2000/svg"><g clip-path="url(#clip0_434_5350)"><path fill-rule="evenodd" clip-rule="evenodd" d="M11.602.252l8.58 4.894c.318.17.582.425.764.739.181.313.273.671.264 1.034v9.756a2.062 2.062 0 01-.277 1.027c-.18.312-.44.57-.75.747l-8.581 4.863c-.303.18-.646.274-.997.275a1.883 1.883 0 01-.997-.275l-8.58-4.863a1.994 1.994 0 01-.756-.744A2.025 2.025 0 010 16.675V6.92c.001-.36.097-.715.277-1.027.18-.311.44-.569.75-.746L9.638.252a2.038 2.038 0 011.964 0zM3.837 14.377l.514-.306a.77.77 0 011.088.337.809.809 0 01-.302 1.1l-.514.307a.921.921 0 01-.393.091.794.794 0 01-.695-.428.807.807 0 01.302-1.1zm2.599-1.498l1.057-.612a.77.77 0 011.088.336.809.809 0 01-.302 1.101l-1.058.612a.923.923 0 01-.392.092.793.793 0 01-.695-.428.809.809 0 01.302-1.101zm5.143-2.335c.072.063.132.14.174.227.109.217.13.468.06.7a.823.823 0 01-.204.931.71.71 0 01-.248.14v6.208a.83.83 0 01-.24.584.81.81 0 01-1.153 0 .83.83 0 01-.239-.584v-6.177a.71.71 0 01-.423-.367.821.821 0 01-.03-.704.823.823 0 01.205-.93.711.711 0 01.248-.14V4.254a.807.807 0 01.22-.58.787.787 0 01.878-.183.813.813 0 01.442.447c.04.1.062.208.061.316v6.15c.091.03.176.077.249.14zm1.174-1.274l1.058-.612a.77.77 0 011.088.337.807.807 0 01-.303 1.1l-1.057.612a.921.921 0 01-.393.092.794.794 0 01-.695-.428.807.807 0 01.302-1.101zm3.955-.398a.922.922 0 01-.392.092.766.766 0 01-.695-.398.807.807 0 01.302-1.1l.513-.306a.792.792 0 011.091.304.815.815 0 01-.305 1.102l-.514.306zm0 5.2l.514.305a.749.749 0 01.383.468.765.765 0 01-.081.602.807.807 0 01-.695.429.922.922 0 01-.393-.092l-.513-.306a.817.817 0 01-.299-1.1.79.79 0 011.084-.308zm-3.172-1.805l1.057.612a.74.74 0 01.387.467.758.758 0 01-.085.603.807.807 0 01-.694.428.921.921 0 01-.393-.092l-1.058-.611a.8.8 0 01-.379-.487.816.816 0 01.278-.856.794.794 0 01.887-.064zm-6.043-1.59l-1.057-.612a.866.866 0 01-.302-1.132.799.799 0 01.48-.383.783.783 0 01.607.078l1.058.611a.794.794 0 01.379.487.81.81 0 01-.077.614.807.807 0 01-.695.428.921.921 0 01-.393-.091zM4.623 7.16l.514.305a.767.767 0 01.375.47.783.783 0 01-.073.6.807.807 0 01-.695.429.921.921 0 01-.393-.092l-.514-.306a.8.8 0 01-.379-.487.818.818 0 01.278-.855.795.795 0 01.887-.064z" fill="#000"/></g><defs><clipPath id="clip0_434_5350"><path fill="#fff" d="M0 0h21.257v24H0z"/></clipPath></defs></svg>
